src/assets/img/partly-cloudy.svg

<svg height="200" viewBox="0 0 200 200" width="200" xmlns="http://www.w3.org/2000/svg" xmlns:xlink="http://www.w3.org/1999/xlink"><linearGradient id="a" x1="50%" x2="50%" y1="0%" y2="100%"><stop offset="0" stop-color="#fffcc9"/><stop offset="1" stop-color="#fff799"/></linearGradient><linearGradient id="b" x1="50%" x2="50%" y1="0%" y2="100%"><stop offset="0" stop-color="#a9d9ff"/><stop offset="1" stop-color="#7ac5ff"/></linearGradient><g fill="none" fill-rule="evenodd"><path d="m42.7425 62.73c-11.0387914 0-19.9875-8.9487086-19.9875-19.9875s8.9487086-19.9875 19.9875-19.9875 19.9875 8.9487086 19.9875 19.9875-8.9487086 19.9875-19.9875 19.9875zm-39.60327574-17.835c-1.6982756 0-3.075-1.3767244-3.075-3.075s1.3767244-3.075 3.075-3.075h12.99903044c1.6982756 0 3.075 1.3767244 3.075 3.075s-1.3767244 3.075-3.075 3.075zm66.27174534 0c-1.6982756 0-3.075-1.3767244-3.075-3.075s1.3767244-3.075 3.075-3.075h12.9990304c1.6982756 0 3.075 1.3767244 3.075 3.075s-1.3767244 3.075-3.075 3.075zm-29.4359696-41.75577574c0-1.6982756 1.3767244-3.075 3.075-3.075s3.075 1.3767244 3.075 3.075v12.99903044c0 1.6982756-1.3767244 3.075-3.075 3.075s-3.075-1.3767244-3.075-3.075zm0 66.27174534c0-1.6982756 1.3767244-3.075 3.075-3.075s3.075 1.3767244 3.075 3.075v12.9990304c0 1.6982756-1.3767244 3.075-3.075 3.075s-3.075-1.3767244-3.075-3.075zm-27.1931628-52.7152964c-1.2008622-1.2008622-1.2008622-3.1478445 0-4.3487067 1.2008621-1.2008622 3.1478445-1.2008622 4.3487067 0l9.1917025 9.1917025c1.2008622 1.2008622 1.2008622 3.1478445 0 4.3487067s-3.1478445 1.2008622-4.3487067 0zm46.8612005 46.8612005c-1.2008622-1.2008622-1.2008622-3.1478445 0-4.3487067s3.1478445-1.2008622 4.3487067 0l9.1917025 9.1917026c1.2008622 1.2008622 1.2008622 3.1478445 0 4.3487067s-3.1478445 1.2008622-4.3487067 0zm8.5312891-50.7750365c1.2008622-1.2008622 3.1478445-1.2008622 4.3487067 0 1.2008622 1.2008621 1.2008622 3.1478445 0 4.3487067l-9.1917025 9.1917025c-1.2008622 1.2008622-3.1478445 1.2008622-4.3487067 0s-1.2008622-3.1478445 0-4.3487067zm-46.8612005 46.8612005c1.2008622-1.2008622 3.1478445-1.2008622 4.3487067 0s1.2008622 3.1478445 0 4.3487067l-9.1917026 9.1917025c-1.2008622 1.2008622-3.1478445 1.2008622-4.3487067 0s-1.2008622-3.1478445 0-4.3487067z" fill="url(#a)" transform="translate(86.835 10.45)"/><path d="m47.2899719 79.0385582c2.4546346-20.8576454 20.192704-37.0385582 41.7100281-37.0385582 14.835057 0 27.873693 7.6913914 35.345759 19.3040253 3.629484-.852907 7.413201-1.3040253 11.301968-1.3040253 27.256508 0 49.352273 22.1619049 49.352273 49.5 0 27.338095-22.095765 49.5-49.352273 49.5h-82.5795452c-22.1290458 0-40.0681818-17.992834-40.0681818-40.188119 0-20.2272027 14.898815-36.9641848 34.2899719-39.7733228z" fill="url(#b)"/></g></svg>

<?xml version="1.0" encoding="UTF-8"?>
<svg width="200px" height="200px" viewBox="0 0 200 200" version="1.1" xmlns="http://www.w3.org/2000/svg" xmlns:xlink="http://www.w3.org/1999/xlink">
    <!-- Generator: Sketch 52.1 (67048) - http://www.bohemiancoding.com/sketch -->
    <title>partly cloudy</title>
    <desc>Created with Sketch.</desc>
    <defs>
        <linearGradient x1="50%" y1="0%" x2="50%" y2="100%" id="linearGradient-1">
            <stop stop-color="#FFFCC9" offset="0%"></stop>
            <stop stop-color="#FFF799" offset="100%"></stop>
        </linearGradient>
        <linearGradient x1="50%" y1="0%" x2="50%" y2="100%" id="linearGradient-2">
            <stop stop-color="#A9D9FF" offset="0%"></stop>
            <stop stop-color="#7AC5FF" offset="100%"></stop>
        </linearGradient>
    </defs>
    <g id="partly-cloudy" stroke="none" stroke-width="1" fill="none" fill-rule="evenodd">
        <g id="sun" transform="translate(69.000000, -8.000000)" fill="url(#linearGradient-1)">
            <g id="Group-2" transform="translate(17.835000, 18.450000)">
                <path d="M42.7425,62.73 C31.7037086,62.73 22.755,53.7812914 22.755,42.7425 C22.755,31.7037086 31.7037086,22.755 42.7425,22.755 C53.7812914,22.755 62.73,31.7037086 62.73,42.7425 C62.73,53.7812914 53.7812914,62.73 42.7425,62.73 Z M3.13922426,44.895 C1.44094866,44.895 0.0642242637,43.5182756 0.0642242637,41.82 C0.0642242637,40.1217244 1.44094866,38.745 3.13922426,38.745 L16.1382547,38.745 C17.8365303,38.745 19.2132547,40.1217244 19.2132547,41.82 C19.2132547,43.5182756 17.8365303,44.895 16.1382547,44.895 L3.13922426,44.895 Z M69.4109696,44.895 C67.712694,44.895 66.3359696,43.5182756 66.3359696,41.82 C66.3359696,40.1217244 67.712694,38.745 69.4109696,38.745 L82.41,38.745 C84.1082756,38.745 85.485,40.1217244 85.485,41.82 C85.485,43.5182756 84.1082756,44.895 82.41,44.895 L69.4109696,44.895 Z M39.975,3.13922426 C39.975,1.44094866 41.3517244,0.0642242637 43.05,0.0642242637 C44.7482756,0.0642242637 46.125,1.44094866 46.125,3.13922426 L46.125,16.1382547 C46.125,17.8365303 44.7482756,19.2132547 43.05,19.2132547 C41.3517244,19.2132547 39.975,17.8365303 39.975,16.1382547 L39.975,3.13922426 Z M39.975,69.4109696 C39.975,67.712694 41.3517244,66.3359696 43.05,66.3359696 C44.7482756,66.3359696 46.125,67.712694 46.125,69.4109696 L46.125,82.41 C46.125,84.1082756 44.7482756,85.485 43.05,85.485 C41.3517244,85.485 39.975,84.1082756 39.975,82.41 L39.975,69.4109696 Z M12.7818372,16.6956732 C11.580975,15.494811 11.580975,13.5478287 12.7818372,12.3469665 C13.9826993,11.1461043 15.9296817,11.1461043 17.1305439,12.3469665 L26.3222464,21.538669 C27.5231086,22.7395312 27.5231086,24.6865135 26.3222464,25.8873757 C25.1213842,27.0882379 23.1744019,27.0882379 21.9735397,25.8873757 L12.7818372,16.6956732 Z M59.6430377,63.5568737 C58.4421755,62.3560115 58.4421755,60.4090292 59.6430377,59.208167 C60.8438999,58.0073048 62.7908822,58.0073048 63.9917444,59.208167 L73.1834469,68.3998696 C74.3843091,69.6007318 74.3843091,71.5477141 73.1834469,72.7485763 C71.9825847,73.9494385 70.0356024,73.9494385 68.8347402,72.7485763 L59.6430377,63.5568737 Z M68.1743268,12.7818372 C69.375189,11.580975 71.3221713,11.580975 72.5230335,12.7818372 C73.7238957,13.9826993 73.7238957,15.9296817 72.5230335,17.1305439 L63.331331,26.3222464 C62.1304688,27.5231086 60.1834865,27.5231086 58.9826243,26.3222464 C57.7817621,25.1213842 57.7817621,23.1744019 58.9826243,21.9735397 L68.1743268,12.7818372 Z M21.3131263,59.6430377 C22.5139885,58.4421755 24.4609708,58.4421755 25.661833,59.6430377 C26.8626952,60.8438999 26.8626952,62.7908822 25.661833,63.9917444 L16.4701304,73.1834469 C15.2692682,74.3843091 13.3222859,74.3843091 12.1214237,73.1834469 C10.9205615,71.9825847 10.9205615,70.0356024 12.1214237,68.8347402 L21.3131263,59.6430377 Z" id="Combined-Shape"></path>
            </g>
        </g>
        <path d="M47.2899719,79.0385582 C49.7446065,58.1809128 67.4826759,42 89,42 C103.835057,42 116.873693,49.6913914 124.345759,61.3040253 C127.975243,60.4511183 131.75896,60 135.647727,60 C162.904235,60 185,82.1619049 185,109.5 C185,136.838095 162.904235,159 135.647727,159 L53.0681818,159 C30.939136,159 13,141.007166 13,118.811881 C13,98.5846783 27.898815,81.8476962 47.2899719,79.0385582 Z" id="Combined-Shape" fill="url(#linearGradient-2)"></path>
    </g>
</svg>
